X:676
T:
N:
S:Efter »Florsen» i Burs.
R:kadrilj
O:Gotland, Burs
M:C
L:1/16
K:C
cdcB cdef ga_ba a2fa|aggg gfdB B2ed cGEG|cdcB cdef ga_ba a2fa|aggg gfdB c2e2 c4:|
|:G2GG BGBd Lf4 Ld4|G2GG cGce Lg4 Le4|c2c^c defg La4 Lf3a|agec gfdB c2e2 c4:|
|:G3f fedc c3B B4|GBd2 GBd2 Gce2 Gce2|G3f fedc c3B B4|GBd2 GBd2 c8:|
|:G3A Bcde f6e2|ed dc cB BA AG GF E2F2|G2f2 fedc c3B B4|GBd2 GBd2 c8:|

